X:18844
T:Winnipeg Reel
C:Andy De Jarlis
M:4/4
L:1/8
K:D
fg|a2 f2 dcde|g2 e2 B4|gfed cABc|defg a2 fg|!
a2 f2 dcde|g2 e2 B4|gfed cABc|d2 f2 d2 fg|!
a2 f2 dcde|g2 e2 B4|gfed cABc|defg a2 fg|!
a2 f2 dcde|g2 e2 B4|gfed cABc|d2 f2 d2:|!
|:AG|FAFF FFAF|GBGG GBed|cAce aece|defd A2 AG|!
FAFF FFAF|GBGG GBed|cAce aece|d2 (3edc d2 AG|!
FAFF FFAF|GBGG GBed|cAce aece|defd A2 AG|!
FAFF FFAF|GBGG GBed|cAce aece|d2 (3edc d2:|!


